X: 79
M:2/4
L:1/16
K:A
uE2|\
.A2(ce) .a2(gf) | ecdB cAFA | E2(AB) cAaf | ecAc (BA)(FB)|
u(Ad)|\
.f2(fg) .a2(af) | efec (dc)(BA) |(Ac)(ec) (Ad)(fc) | efec (dc)(BA)|

